X:862
T:Charley the Prayermaster
N:"Collected by F.O'Neill"
B:O'Neill's 862
Z:Transcribed by Dan G. Petersen, dangp@post6.tele.dk
M:6/8
L:1/8
K:G
A|GED G2A|Bee dBA|GED GAB|dcBA BGE|
GED G2A|Bee dBA|GED G2A|BGG G2:|
d|e2d ""e2d|efe edB|d2B ""d2B|dge dBG|
e2d ""e2f|agfe dBA|GED G2A|BGG G2:|
